X: 10719
T: Doyle's
R: polka
M: 2/4
K: Gmajor
|:d/|Bd G>A|Bd ed|B/c/d G>A|BA AG/A/|
Bd G>A|Bd ed|Bd ef|ag g3/2:|
|:d/|Bd ed|gd ed|B/c/d G>A|BA AG/A/|
Bd ed|gd ed|Bd ef|ag g3/2:|

